X: 2076
T: Çalabım Bir Şâr Yaratmış
C: Hacı Bayram Veli
O: Turkey
F: http://compmusic.upf.edu/node/140
N: acem--ilahi--nimevsat--calabim_bir--haci_bayram_veli
N: makam= acem
N: form= ilahi
N: usul= nimevsat = 13/8
M: 13/8
L: 1/16
K: C _1/4B   
Q: 1/4=126
%%MIDI tuningsystem comma53
A4 f6f6 e2gf fef2 g2 | a2 gfe2 e2{f}ed d4 e2{f}ed d2{f}ed c4  | 
w:  Ça la bım  *  bir   |  şâr  *  *  ya *  *  *  *  rat *  *  *  *  mış    | 
f2e2 ded2 e2e4g2 {a}fee2 {g}fee4 | \
w:  İ *  ki  *  *  *  ci *  *  *  *  hân   | 
A4e6 e6c2 d4 g4  | g^fga =bagf e2e4e4e4z4 | 
w:  â re sin  |  de    | 
A4f6 f6e2 gffe f2g2  | a2gf e2e2 {f}edd4e2 {f}edd2 {f}edc4 | 
w:  Ba kı cak  *  dî  |  dâr  *  *  gö *  *  *  *  rü *  *  *  *  nür    | 
f2 {g}edd6 dedc d4 dedc d4  | A2_2/4B2 cdc2 d2Bc B2c2 B2B2 {c}BAA4 | 
w:  Ol  *  *  *  şâ hın  *  *  *  *  ke  |  nâ *  *  *  *  *  re *  *  *  *  sin  | 
_2/4B3/2A/ GAG2 c2{d}BA A4 A4 A4 z4  | \
w:  de    | 
A4 f6f6 e2gf fef2 g2 | 
w:  Ça la bım  *  bir   | 
a2 gfe2 e2{f}ed d4 e2{f}ed d2{f}ed c4  | \
w:  şâr  *  *  ya *  *  *  *  rat *  *  *  *  mış    | 
f2e2 ded2 e2e4g2 {a}fee2 {g}fee4 | 
w:  İ *  ki  *  *  *  ci *  *  *  *  hân   | 
A4e6 e6c2 d4 g4  | g^fga =bagf e2e4e4e4z4 | \
w:  â re sin  |  de    | 
A4f6 f6e2 gffe f2g2  | 
w:  Ba kı cak  *  dî  | 
a2gf e2e2 {f}edd4e2 {f}edd2 {f}edc4 | \
w:  dâr  *  *  gö *  *  *  *  rü *  *  *  *  nür    | 
f2 {g}edd6 dedc d4 dedc d4  | 
w:  Ol  *  *  *  şâ hın  *  *  *  *  ke  | 
A2_2/4B2 cdc2 d2Bc B2c2 B2B2 {c}BAA4 | \
w:  nâ *  *  *  *  *  re *  *  *  *  sin  | 
_2/4B3/2A/ GAG2 c2{d}BA A4 A4 A4 z4  | 
w:  de    | 
|


